X:1
T:E Major Daniel Belknap, 1802
T:Philip Doddridge, 1755 66. 66. 44. 44.
T:Boylston
T:Transcribed from The Village Compilation, 1806.
%%score [ 1 2 3 4 ]
L:1/8
M:4/4
K:E
V:1 treble nm="Treble" snm="Tr."
V:2 treble nm="Counter" snm="C."
V:3 treble-8 nm="Tenor" snm="T."
V:4 bass nm="Bass" snm="B."
V:1
 B8 | G2 B2 e2 dc | B6 c2 | B2 B2 f2 d2 | e6 d2 | c2 e2 d>e fe | d6 d2 | e2 c2 B2 B2 | B8 |: %9
w: 1.~Great|Fa- ther of man- *|kind, We|bless the won- drous|grace That|could for Gen- * tiles *|find With-|in thy courts a|place;|
 G4 A2 B2 | e6 B2 | e2 e2 e2 d2 | c2 B2 c2 e2 | B4 B4 | B8 :| %15
w: How kind the|care Our|God dis- plays, For|us to raise A|house of|prayer.|
V:2
 E8 | E2 E2 E2 F2 | G6 EF | G2 G2 A2 GF | E6 F2 | E2 G2 F2 F2 | F6 F2 | E2 E2 D2 D2 | E8 |: %9
w: 2.~Though|once es- tran- ged|far We *|now ap- proach the *|throne; For|Je- sus brings us|near, And|makes his cause our|own;|
 G4 F2 EF | G6 F2 | G2 G2 G2 F2 | E2 G2 A2 AG | F4 F4 | G8 :| %15
w: Stran- gers no *|more, To|thee we come, And|find our home, And *|rest se-|cure.|
V:3
 B8 | B2 G2 Bc d2 | e6 G2 | B2 ed c2 B2 | c6 B2 | e2 c2 f>e dc | B6 B2 | ce cA G2 F2 | E8 |: %9
w: 3.~To|thee our souls * we|join, And|love thy * sa- cred|name; No|more our own, * but *|thine; We|tri- * umph * in thy|claim;|
 B4 A2 G2 | c6 B2 | G2 B2 e2 B2 | c2 de f2 e2 | (d2 B2) d4 | e8 :| %15
w: Our Fa- ther-|King, Thy|cove- nant grace Our|souls em- * brace, Thy|ti- * tles|sing.|
V:4
 E,8 | E,2 E,2 E,2 B,,2 | E,6 E,2 | E,2 E,2 F,2 G,2 | C,6 D,2 | E,2 E,2 F,2 F,2 | B,,6 B,,2 | %7
w: 4.~Here|in thy house we|feast On|dain- ties all di-|vine; And,|while such sweets we|taste, With|
w: 5.~~May|all the na- tions|throng To|wor- ship in thy|house; And|thou at- tend the|song, And|
 E,2 A,2 B,2 B,,2 | E,8 |: E,4 F,2 G,2 | C,6 D,2 | E,2 E,2 E,2 G,2 | A,2 G,2 F,2 A,2 | B,4 B,,4 | %14
w: joy our fa- ces|shine.|In- cense shall|rise From|flames of love, And|God ap- prove The|sac- ri-|
w: smile up- on their|vows.|In- dul- gent|still, Till|earth con- spire To|join the choir On|Zi- on's|
 E,8 :| %15
w: fice.|
w: hill.|

